app/assets/images/icons/active/nd.svg

<svg width="32" height="232" viewBox="0 0 32 232" xmlns="http://www.w3.org/2000/svg" xmlns:sketch="http://www.bohemiancoding.com/sketch/ns"><title>nd</title><g sketch:type="MSPage" fill="none"><path d="M15.971 120c4.474 0 8.269 1.555 11.373 4.658 3.101 3.088 4.656 6.867 4.656 11.342 0 4.475-1.525 8.228-4.57 11.256-3.219 3.164-7.045 4.744-11.459 4.744-4.323 0-8.073-1.57-11.256-4.715-3.145-3.146-4.715-6.906-4.715-11.285 0-4.365 1.57-8.138 4.715-11.342 3.103-3.103 6.853-4.658 11.256-4.658zm.058 2.883c-3.642 0-6.714 1.291-9.226 3.863-2.613 2.641-3.918 5.728-3.918 9.254 0 3.562 1.297 6.627 3.888 9.197 2.592 2.594 5.672 3.885 9.256 3.885 3.563 0 6.664-1.3 9.315-3.908 2.509-2.438 3.771-5.496 3.771-9.174 0-3.656-1.277-6.744-3.832-9.254-2.531-2.572-5.619-3.863-9.254-3.863zm-5.599 9.345h11.629v2.745h-11.629v-2.745zm0 5.145h11.629v2.742h-11.629v-2.742zm0 0" fill="#206FAC" sketch:type="MSShapeGroup"/><path d="M15.971 80c4.474 0 8.269 1.555 11.373 4.658 3.101 3.088 4.656 6.867 4.656 11.342 0 4.475-1.525 8.228-4.57 11.256-3.219 3.164-7.045 4.744-11.459 4.744-4.323 0-8.073-1.57-11.256-4.715-3.145-3.146-4.715-6.906-4.715-11.285 0-4.365 1.57-8.138 4.715-11.342 3.103-3.103 6.853-4.658 11.256-4.658zm.058 2.883c-3.642 0-6.714 1.291-9.226 3.863-2.613 2.641-3.918 5.728-3.918 9.254 0 3.562 1.297 6.627 3.888 9.197 2.592 2.594 5.672 3.885 9.256 3.885 3.563 0 6.664-1.3 9.315-3.908 2.509-2.438 3.771-5.496 3.771-9.174 0-3.656-1.277-6.744-3.832-9.254-2.531-2.572-5.619-3.863-9.254-3.863zm-5.599 9.345h11.629v2.745h-11.629v-2.745zm0 5.145h11.629v2.742h-11.629v-2.742zm0 0" fill="#fff" sketch:type="MSShapeGroup"/><path d="M15.971 40c4.474 0 8.269 1.555 11.373 4.658 3.101 3.088 4.656 6.867 4.656 11.342 0 4.475-1.525 8.228-4.57 11.256-3.219 3.164-7.045 4.744-11.459 4.744-4.323 0-8.073-1.57-11.256-4.715-3.145-3.146-4.715-6.906-4.715-11.285 0-4.365 1.57-8.138 4.715-11.342 3.103-3.103 6.853-4.658 11.256-4.658zm.058 2.883c-3.642 0-6.714 1.291-9.226 3.863-2.613 2.641-3.918 5.728-3.918 9.254 0 3.562 1.297 6.627 3.888 9.197 2.592 2.594 5.672 3.885 9.256 3.885 3.563 0 6.664-1.3 9.315-3.908 2.509-2.438 3.771-5.496 3.771-9.174 0-3.656-1.277-6.744-3.832-9.254-2.531-2.572-5.619-3.863-9.254-3.863zm-5.599 9.345h11.629v2.745h-11.629v-2.745zm0 5.145h11.629v2.742h-11.629v-2.742zm0 0" fill="#67737B" sketch:type="MSShapeGroup"/><path d="M15.971 0c4.474 0 8.269 1.555 11.373 4.658 3.101 3.088 4.656 6.867 4.656 11.342 0 4.475-1.525 8.228-4.57 11.256-3.219 3.164-7.045 4.744-11.459 4.744-4.323 0-8.073-1.57-11.256-4.715-3.145-3.146-4.715-6.906-4.715-11.285 0-4.365 1.57-8.138 4.715-11.342 3.103-3.103 6.853-4.658 11.256-4.658zm.058 2.883c-3.642 0-6.714 1.291-9.226 3.863-2.613 2.641-3.918 5.728-3.918 9.254 0 3.562 1.297 6.627 3.888 9.197 2.592 2.594 5.672 3.885 9.256 3.885 3.563 0 6.664-1.3 9.315-3.908 2.509-2.438 3.771-5.496 3.771-9.174 0-3.656-1.277-6.744-3.832-9.254-2.531-2.572-5.619-3.863-9.254-3.863zm-5.599 9.345h11.629v2.745h-11.629v-2.745zm0 5.145h11.629v2.742h-11.629v-2.742zm0 0" fill="#3B444F" sketch:type="MSShapeGroup"/></g></svg>

<?xml version="1.0" encoding="UTF-8" standalone="no"?>
<svg width="32px" height="232px" viewBox="0 0 32 232" version="1.1" xmlns="http://www.w3.org/2000/svg" xmlns:xlink="http://www.w3.org/1999/xlink" xmlns:sketch="http://www.bohemiancoding.com/sketch/ns">
    <title>nd</title>
    <description>Created with Sketch (http://www.bohemiancoding.com/sketch)</description>
    <defs></defs>
    <g id="Creative-commons" stroke="none" stroke-width="1" fill="none" fill-rule="evenodd" sketch:type="MSPage">
        <path d="M15.971,120 C20.445,120 24.24,121.555 27.344,124.658 C30.445,127.746 32,131.525 32,136 C32,140.475 30.475,144.228 27.43,147.256 C24.211,150.42 20.385,152 15.971,152 C11.648,152 7.898,150.43 4.715,147.285 C1.57,144.139 0,140.379 0,136 C0,131.635 1.57,127.862 4.715,124.658 C7.818,121.555 11.568,120 15.971,120 C15.971,120 11.568,120 15.971,120 L15.971,120 L15.971,120 Z M16.029,122.883 C12.387,122.883 9.315,124.174 6.803,126.746 C4.19,129.387 2.885,132.474 2.885,136 C2.885,139.562 4.182,142.627 6.773,145.197 C9.365,147.791 12.445,149.082 16.029,149.082 C19.592,149.082 22.693,147.782 25.344,145.174 C27.853,142.736 29.115,139.678 29.115,136 C29.115,132.344 27.838,129.256 25.283,126.746 C22.752,124.174 19.664,122.883 16.029,122.883 L16.029,122.883 L16.029,122.883 L16.029,122.883 Z M10.43,132.228 L22.059,132.228 L22.059,134.973 L10.43,134.973 L10.43,134.973 L10.43,132.228 L10.43,132.228 Z M10.43,137.373 L22.059,137.373 L22.059,140.115 L10.43,140.115 L10.43,140.115 L10.43,137.373 L10.43,137.373 Z M10.43,137.373" id="nd--lp--blue" fill="#206FAC" sketch:type="MSShapeGroup"></path>
        <path d="M15.971,80 C20.445,80 24.24,81.555 27.344,84.658 C30.445,87.746 32,91.525 32,96 C32,100.475 30.475,104.228 27.43,107.256 C24.211,110.42 20.385,112 15.971,112 C11.648,112 7.898,110.43 4.715,107.285 C1.57,104.139 0,100.379 0,96 C0,91.635 1.57,87.862 4.715,84.658 C7.818,81.555 11.568,80 15.971,80 C15.971,80 11.568,80 15.971,80 L15.971,80 L15.971,80 Z M16.029,82.883 C12.387,82.883 9.315,84.174 6.803,86.746 C4.19,89.387 2.885,92.474 2.885,96 C2.885,99.562 4.182,102.627 6.773,105.197 C9.365,107.791 12.445,109.082 16.029,109.082 C19.592,109.082 22.693,107.782 25.344,105.174 C27.853,102.736 29.115,99.678 29.115,96 C29.115,92.344 27.838,89.256 25.283,86.746 C22.752,84.174 19.664,82.883 16.029,82.883 L16.029,82.883 L16.029,82.883 L16.029,82.883 Z M10.43,92.228 L22.059,92.228 L22.059,94.973 L10.43,94.973 L10.43,94.973 L10.43,92.228 L10.43,92.228 Z M10.43,97.373 L22.059,97.373 L22.059,100.115 L10.43,100.115 L10.43,100.115 L10.43,97.373 L10.43,97.373 Z M10.43,97.373" id="nd--white" fill="#FFFFFF" sketch:type="MSShapeGroup"></path>
        <path d="M15.971,40 C20.445,40 24.24,41.555 27.344,44.658 C30.445,47.746 32,51.525 32,56 C32,60.475 30.475,64.228 27.43,67.256 C24.211,70.42 20.385,72 15.971,72 C11.648,72 7.898,70.43 4.715,67.285 C1.57,64.139 0,60.379 0,56 C0,51.635 1.57,47.862 4.715,44.658 C7.818,41.555 11.568,40 15.971,40 C15.971,40 11.568,40 15.971,40 L15.971,40 L15.971,40 Z M16.029,42.883 C12.387,42.883 9.315,44.174 6.803,46.746 C4.19,49.387 2.885,52.474 2.885,56 C2.885,59.562 4.182,62.627 6.773,65.197 C9.365,67.791 12.445,69.082 16.029,69.082 C19.592,69.082 22.693,67.782 25.344,65.174 C27.853,62.736 29.115,59.678 29.115,56 C29.115,52.344 27.838,49.256 25.283,46.746 C22.752,44.174 19.664,42.883 16.029,42.883 L16.029,42.883 L16.029,42.883 L16.029,42.883 Z M10.43,52.228 L22.059,52.228 L22.059,54.973 L10.43,54.973 L10.43,54.973 L10.43,52.228 L10.43,52.228 Z M10.43,57.373 L22.059,57.373 L22.059,60.115 L10.43,60.115 L10.43,60.115 L10.43,57.373 L10.43,57.373 Z M10.43,57.373" id="nd--light--grey" fill="#67737B" sketch:type="MSShapeGroup"></path>
        <path d="M15.971,0 C20.445,0 24.24,1.555 27.344,4.658 C30.445,7.746 32,11.525 32,16 C32,20.475 30.475,24.228 27.43,27.256 C24.211,30.42 20.385,32 15.971,32 C11.648,32 7.898,30.43 4.715,27.285 C1.57,24.139 0,20.379 0,16 C0,11.635 1.57,7.862 4.715,4.658 C7.818,1.555 11.568,0 15.971,0 C15.971,0 11.568,0 15.971,0 L15.971,0 L15.971,0 Z M16.029,2.883 C12.387,2.883 9.315,4.174 6.803,6.746 C4.19,9.387 2.885,12.474 2.885,16 C2.885,19.562 4.182,22.627 6.773,25.197 C9.365,27.791 12.445,29.082 16.029,29.082 C19.592,29.082 22.693,27.782 25.344,25.174 C27.853,22.736 29.115,19.678 29.115,16 C29.115,12.344 27.838,9.256 25.283,6.746 C22.752,4.174 19.664,2.883 16.029,2.883 L16.029,2.883 L16.029,2.883 L16.029,2.883 Z M10.43,12.228 L22.059,12.228 L22.059,14.973 L10.43,14.973 L10.43,14.973 L10.43,12.228 L10.43,12.228 Z M10.43,17.373 L22.059,17.373 L22.059,20.115 L10.43,20.115 L10.43,20.115 L10.43,17.373 L10.43,17.373 Z M10.43,17.373" id="nd--dark--grey" fill="#3B444F" sketch:type="MSShapeGroup"></path>
    </g>
</svg>
